!! 00000] TT[00
!! NN
!!!OTL: Zhongren kangshan shan hui dong
!!!ARE: Asia, China, Fujian, Quanzhou
!! Ethnic Group: Han
!! II, 569, 2)
!!!SCT: C0263
!!!YEM: Copyright 1995, estate of Helmut Schaffrath.
**kern
*ICvox
*Ivox
*M2/4
*k[f#]
*G:
{4b
4a
=1
8dd
4b
8a
=2
8.b
16dd
8b
8a
=3
4g
4a
=4
8.b
16dd
8b
8a
=5
4g
4a}
=6
{4e
8a
8b
=7
4g
4e
=8
8e
8g
8a
8e
=9
4g
4e}
=10
{4a
4dd
=11
8b
4b
8a
=12
4b
8e
8a
=13
4g
4e
=14
4b
8e
8a
=15
4g
4e}
=16
{8e
8g
8g
8e
=17
8.a
16b
8a
8g
=18
8e
8a
8g
8a
=19
2e}
==
!!!AGN: Xiaodiao, Fengsuge, Cailiange. Xin minge
!! 
!!!ONB: ESAC (Essen Associative Code) Database: CHINA
!!!AMT: simple duple
!!!AIN: vox
!!!EED: Helmut Schaffrath
!!!EEV: 1.0
*-
